X:46
T:Temperance Reel
M:2/2
L:1/8
K:G
D|:"G"~G3 F GABc|d2 ge "D/F#"dBAc|"Emi"BEED EFGA|"C"BGAF "G"GFED|
"G"~G3 F GABc|d z ge "D"dBAc|"Emi"BEED "C"EFGA|BG"D"AF "G"G3:|
A||"Emi"Beed e3 g|fgaf gfed|B z d^c "D"d3 e|fgaf gfed|
"Emi"Beed ~e3 g|fgaf "D"gfed|"Emi"BEED "C"EFGA|"D"BGAF "G"G3:||
